X:1
T:Hosanna to the King!
T:Hosanna to the King!
T:Thoro Harris
T:Jennie Wilson, 1906
T:Public Domain Courtesy of the Cyber Hymnal™
T:Public Domain Courtesy of the Cyber Hymnal™
C:Thoro Harris
Z:Public Domain
Z:Courtesy of the Cyber Hymnal™
%%score ( 1 2 ) ( 3 4 )
L:1/8
Q:1/4=93
M:4/4
K:Ab
V:1 treble 
V:2 treble 
V:3 bass 
V:4 bass 
V:1
 [CE] | [CE][=B,=D][CE][CA] [Ec]3 [EA] | [FB][FA][DF][DA] [CE]3 [CE] | %3
w: 1.~Ho-|san- na to the King! Let|hap- py voic- es ring The|
w: 2.~A|crown more fair than morn His|brow doth now a- dorn, And|
w: 3.~He|rules in lov- ing power, And|gives a bless- èd dower Of|
 [CE][DF][DG][CA] [Ed][Ec][EB][EA] | [EB]6 [DE]2 | [CE][=B,=D][CE][CA] [Ec]3 [_GA] | %6
w: praise of Him who tri- umphed o’er the|grave; He|reigns as vict- or now, To|
w: roy- al is the scep- ter in His|hand; He|en- tered death’s do- main The|
w: last- ing joy and com- fort to His|own; Ho-|san- na to the King! A|
 [FB][FA][DF][DA] [CE]3 [_Ge] | [Fe][Fd][FA][_FB] [Ec]2 [DB]2 | [CA]6 z ||"^Refrain" [_GA] | %10
w: Him in hom- age bow; Un-|dy- ing hope to us He|gave.||
w: vic- to- ry to gain; All|fears flee at our king’s com-|mand.|Ho-|
w: grate- ful trib- ute bring; All|praise to Je- sus on His|throne!||
 [Fd][Fd][Fd][Fd] [Fd]3 [_FA] | [Ec][Ec][Ec][Ec] [Ec]3 [Ec] | [Ge][Af][Ae][Ec] [Ed]2 [Ec]2 | %13
w: |||
w: san- na to the King! Ho-|san- na to the King! The|dread- ed sway of death is|
w: |||
 [GB]6 z E | [Ec][=D=B][Ec][F_d] [Ec]3 [EA] | [FA][GB][FA][DF] [FA]3 [DF] | %16
w: |||
w: o’er; Ho-|san- na to the King! O|let the glad notes ring; Our|
w: |||
 [CE][CA][Ec][Ee] .[Ec]2 .[DB]2 | [CA]6 z |] %18
w: ||
w: Sav- ior lives for- ev- er-|more.|
w: ||
V:2
 x | x8 | x8 | x8 | x8 | x8 | x8 | x8 | x7 || x | x8 | x8 | x8 | x7 E | x8 | x8 | x8 | x7 |] %18
V:3
 [A,,A,] | [A,,A,][A,,A,][A,,A,][A,,E,] [A,,A,]3 [C,A,] | [D,A,][D,A,][D,A,][F,A,] A,3 [A,,A,] | %3
w: ~|~ ~ ~ ~ ~ ~|~ ~ ~ ~ ~ ~|
 [A,,A,][D,A,][B,,E,][A,,E,] [G,,B,][A,,A,][B,,G,][C,A,] | [E,G,]6 [E,G,]2 | %5
w: ~ ~ ~ ~ ~ ~ ~ ~|~ ~|
 [A,,A,][A,,A,][A,,A,][A,,E,] [A,,A,]3 [C,A,] | [D,A,][D,A,][D,A,][F,A,] A,3 [C,A,] | %7
w: ~ ~ ~ ~ ~ ~|~ ~ ~ ~ ~ ~|
 [D,A,][D,A,][D,A,][D,A,] [E,A,]2 [E,G,]2 | [A,,A,]6 z || [A,C] | %10
w: ~ ~ ~ ~ ~ ~|~|~|
 [D,D][D,A,][D,A,][D,A,] [D,A,]3 [D,A,] | [A,,A,][A,,A,][C,A,][E,A,] A,3 A, | %12
w: ~ ~ ~ ~ ~ ~|~ ~ ~ ~ ~ ~|
 [A,C][A,D][A,C]A, [G,B,][G,B,]A,[A,C] | E6 [B,,G,] x | %14
w: ~ ~ ~ ~ ~ ~ ~ ~|~ the|
 [A,,A,][A,,A,][A,,A,][A,,A,] [A,,A,]3 [C,A,] | [D,A,][D,A,][D,A,][D,A,] [D,D]3 [D,A,] | %16
w: sway of death is o’er *||
 [A,,A,][A,,A,]A,[C,A,] .[E,A,]2 .[E,G,]2 | [A,,A,]6 z |] %18
w: ||
V:4
 x | x8 | x4 A,3 x | x8 | x8 | x8 | x4 A,3 x | x8 | x7 || x | x8 | x4 A,3 A, | x3 A, x A, x2 | %13
 E,=D,E,F, E,_D,C, x | x8 | x8 | x2 A, x5 | x7 |] %18

